cash-sync.svg

<svg fill="currentColor" viewBox="0 0 24 24"><path d="M3 6v12h10.32a6.4 6.4 0 0 1-.32-2H7a2 2 0 0 0-2-2v-4c1.11 0 2-.89 2-2h10a2 2 0 0 0 2 2v.06c.67 0 1.34.12 2 .34V6zm9 3c-1.7.03-3 1.3-3 3s1.3 2.94 3 3c.38 0 .77-.08 1.14-.23.27-1.1.72-2.14 1.83-3.16C14.85 10.28 13.59 8.97 12 9m7 2 2.25 2.25L19 15.5V14c-1.85 0-3.06 1.96-2.24 3.62l-1.09 1.09c-1.76-2.66.14-6.21 3.33-6.21zm0 11-2.25-2.25L19 17.5V19c1.85 0 3.06-1.96 2.24-3.62l1.09-1.09c1.76 2.66-.14 6.21-3.33 6.21z"/></svg>

<svg  viewBox="0 0 24 24" fill="currentColor"><path  d="M3 6V18H13.32C13.1 17.33 13 16.66 13 16H7C7 14.9 6.11 14 5 14V10C6.11 10 7 9.11 7 8H17C17 9.11 17.9 10 19 10V10.06C19.67 10.06 20.34 10.18 21 10.4V6H3M12 9C10.3 9.03 9 10.3 9 12S10.3 14.94 12 15C12.38 15 12.77 14.92 13.14 14.77C13.41 13.67 13.86 12.63 14.97 11.61C14.85 10.28 13.59 8.97 12 9M19 11L21.25 13.25L19 15.5V14C17.15 14 15.94 15.96 16.76 17.62L15.67 18.71C13.91 16.05 15.81 12.5 19 12.5V11M19 22L16.75 19.75L19 17.5V19C20.85 19 22.06 17.04 21.24 15.38L22.33 14.29C24.09 16.95 22.19 20.5 19 20.5V22"/></svg>
